src/assets/icons/desktop.svg

<svg width="24" height="24" viewBox="0 0 24 24" fill="none" xmlns="http://www.w3.org/2000/svg">
  <path d="M9.95 19.75L11.052 19.474C11.61 19.335 12.18 19.265 12.75 19.265M15.55 19.75L14.448 19.474C13.89 19.335 13.32 19.265 12.75 19.265M12.75 15.95V19.265M5.75 13.95V7.75C5.75 6.64543 6.64543 5.75 7.75 5.75H17.75C18.8546 5.75 19.75 6.64543 19.75 7.75V13.95C19.75 15.0546 18.8546 15.95 17.75 15.95H7.75C6.64543 15.95 5.75 15.0546 5.75 13.95Z" stroke="#314158" stroke-width="1.5" stroke-linecap="round"/>
</svg>

<svg fill="none" viewBox="0 0 24 24"><path stroke="currentColor" stroke-linecap="round" stroke-width="1.5" d="m9.95 19.75 1.102-.276a7 7 0 0 1 1.698-.209m2.8.485-1.102-.276a7 7 0 0 0-1.698-.209m0-3.315v3.315m-7-5.315v-6.2a2 2 0 0 1 2-2h10a2 2 0 0 1 2 2v6.2a2 2 0 0 1-2 2h-10a2 2 0 0 1-2-2Z"/></svg>
